assets/img/braze_icons/bold-01.svg

<svg fill="none" height="24" viewBox="0 0 24 24" width="24" xmlns="http://www.w3.org/2000/svg"><path clip-rule="evenodd" d="m6 3c-.55228 0-1 .44772-1 1v16c0 .5523.44772 1 1 1h9c2.7614 0 5-2.2386 5-5 0-1.877-1.0343-3.5125-2.5641-4.3675.9632-.9114 1.5641-2.20179 1.5641-3.6325 0-2.76142-2.2386-5-5-5zm8 8c1.6569 0 3-1.34315 3-3s-1.3431-3-3-3h-7v6zm-7 2v6h8c1.6569 0 3-1.3431 3-3s-1.3431-3-3-3z" fill="#801ed7" fill-rule="evenodd"/></svg>

<svg width="24" height="24" viewBox="0 0 24 24" fill="none" xmlns="http://www.w3.org/2000/svg">
<path fill-rule="evenodd" clip-rule="evenodd" d="M6 3C5.44772 3 5 3.44772 5 4V20C5 20.5523 5.44772 21 6 21H15C17.7614 21 20 18.7614 20 16C20 14.123 18.9657 12.4875 17.4359 11.6325C18.3991 10.7211 19 9.43071 19 8C19 5.23858 16.7614 3 14 3H6ZM14 11C15.6569 11 17 9.65685 17 8C17 6.34315 15.6569 5 14 5H7V11H14ZM7 13V19H15C16.6569 19 18 17.6569 18 16C18 14.3431 16.6569 13 15 13H7Z" fill="#801ED7"/>
</svg>
